X:101
T:Cherry Ripe. RHu.101
S:R.Hughes MS,1823,Whitchurch,Shrops.
A:Whitchurch , Shropshire
Z:Neil Brookes 2006
M:2/4
L:1/8
Q:1/2=60
R:Air
K:G
Bdd2|edd2|g2b>a|g3f|g3f|fed2|cd/c/ Bc/B/|A2zd|!
Bdd2|edd2|g2b>a|g3f|g3g|agec|Bd cA|G2z||!
d3d|d2ef|ag gf|{f}e4|A2Bc|d3c|cBfe|d2cA|!
a3f|g3e|d2ef|A2B^c|d2^c=c|B^cde|f2e2|dcBA|]

